X:1
T:Jesus Loves the Children
T:Jesus Loves the Children
T:Daniel Boardman Purinton
T:Daniel Boardman Purinton, 1882
T:Public Domain Courtesy of the Cyber Hymnal™
C:Daniel Boardman Purinton
Z:Public Domain
Z:Courtesy of the Cyber Hymnal™
%%score ( 1 2 ) ( 3 4 )
L:1/8
Q:1/4=80
M:2/4
K:Eb
V:1 treble 
V:2 treble 
V:3 bass 
V:4 bass 
V:1
 [EB]>[Ec] [EB][EG] | [DF] [B,E]3 | [B,D][DF] [DF]2 | E[EG] [EG]2 | [EB]>[Ec] [EB][EG] | %5
w: 1.~Je- sus loves the|child- ren,|Loves them so,|loves them so,|That He died to|
w: 2.~Je- sus bids the|child- ren,|Come to Him,|come to him,|E- ven they may|
w: 3.~Je- sus, bless- èd|Je- sus,|Now I pray,|hum- bly pray,|Ev- er love and|
 [DF] [CE]3 | [CF][FA] [EG][DF] | E4 ||"^Refrain" [Ec]>[Ec] [Ec][Ec] | [EB][EG] [EG]2 | %10
w: save them|From a world of|woe.|||
w: find Him|Pre- cious to re-|deem.|I am but a|lit- tle child,|
w: keep me,|Take my sins a-|way.|||
 [DF][FA] [FA]2 | [EG][GB] [GB]2 | [Ac]>[Ac] [Ae][Ac] | [GB] [EG]2 E | [CF][FA] [EG][DF] | E4 |] %16
w: ||||||
w: This I know,|this I know,|But I love the|Sav- ior, Be-|cause He loves me|so.|
w: ||||||
V:2
 x4 | x4 | x4 | E x3 | x4 | x4 | x4 | E4 || x4 | x4 | x4 | x4 | x4 | x3 E | x4 | E4 |] %16
V:3
 [E,G,]>[E,A,] [E,G,][E,B,] | [B,,A,] [E,G,]3 | [B,,F,][B,,A,] [B,,A,]2 | [E,G,][E,B,] [E,B,]2 | %4
 [E,G,]>[E,A,] [E,G,][E,B,] | [B,,A,] [C,G,]3 | [A,,A,][A,,C] [B,,B,][B,,A,] | [E,G,]4 || %8
 A,>A, A,A, | [E,G,][E,B,] [E,B,]2 | [B,,B,][B,,B,] [B,,B,]2 | [E,B,][E,E] [E,E]2 | %12
 [A,E]>[A,E] [A,C][A,E] | [E,E] [E,B,]2 [E,G,] | [A,,A,][A,,C] [B,,B,][B,,A,] | [E,G,]4 |] %16
V:4
 x4 | x4 | x4 | x4 | x4 | x4 | x4 | x4 || A,>A, A,A, | x4 | x4 | x4 | x4 | x4 | x4 | x4 |] %16

